svgs/solid/pipe-valve.svg

<svg xmlns="http://www.w3.org/2000/svg" viewBox="0 0 512 512"><!--! Font Awesome Pro 6.6.0 by @fontawesome - https://fontawesome.com License - https://fontawesome.com/license (Commercial License) Copyright 2024 Fonticons, Inc. --><path d="M288 64c0-17.7-14.3-32-32-32s-32 14.3-32 32l0 12L128 64c-17.7 0-32 14.3-32 32s14.3 32 32 32l128-16 128 16c17.7 0 32-14.3 32-32s-14.3-32-32-32L288 76l0-12zm0 84.2l-32-4-32 4 0 43.8L96 192l0 256 320 0 0-256-128 0 0-43.8zM32 160c-17.7 0-32 14.3-32 32L0 448c0 17.7 14.3 32 32 32s32-14.3 32-32l0-256c0-17.7-14.3-32-32-32zm480 32c0-17.7-14.3-32-32-32s-32 14.3-32 32l0 256c0 17.7 14.3 32 32 32s32-14.3 32-32l0-256z"/></svg>

<svg xmlns="http://www.w3.org/2000/svg" viewBox="0 0 512 512"><!--! Font Awesome Pro 6.4.0 by @fontawesome - https://fontawesome.com License - https://fontawesome.com/license (Commercial License) Copyright 2023 Fonticons, Inc. --><path d="M288 64c0-17.7-14.3-32-32-32s-32 14.3-32 32V76L128 64c-17.7 0-32 14.3-32 32s14.3 32 32 32l128-16 128 16c17.7 0 32-14.3 32-32s-14.3-32-32-32L288 76V64zm0 84.2l-32-4-32 4V192H96V448H416V192H288V148.2zM32 160c-17.7 0-32 14.3-32 32V448c0 17.7 14.3 32 32 32s32-14.3 32-32V192c0-17.7-14.3-32-32-32zm480 32c0-17.7-14.3-32-32-32s-32 14.3-32 32V448c0 17.7 14.3 32 32 32s32-14.3 32-32V192z"/></svg>
